X:1
T:Title
%%score { ( 1 3 ) | 2 }
L:1/8
M:4/4
K:Eb
V:1 treble nm="Grand Piano"
V:3 treble 
V:2 bass 
V:1
 z4 z2[Q:1/4=100] [EG]>[FA] | [GB]>[GB] [GB]>[Ac] [GB]>G F>E | %2
 [ce]>[ce] [ce]>[Ac] [GB]2 [EG]>[FA] | [GB]>[GB] [_G=A]>[=GB] [_Ac]>[GB] [GB]>[EG] |[M:3/4] [DF]6 | %5
[M:1/4] [EG]>[FA] |[M:4/4] [GB]>[GB] [GB]>[Ac] [GB]>G F>E |[M:9/8] e>ee- e/c/ e2- ed>c | %8
[M:4/4] (3BBB [GB]>[Ac] [DB]>[DB] [DG]>[DF] |[M:3/4] E6 |[M:1/4] [Ge]>[Bd] |[M:4/4] c6 z2 | %12
 [B,GB]6 z2 | [DF]>[EG] [FA]>[GB] [Bd]>[Bd] [Ad]>[Ac] |[M:3/4] [GB]6 |[M:1/4] [EG]>[FA] | %16
[M:4/4] [GB]>[GB] [GB]>[Ac] [GB]>G F>E |[M:9/8] e>ee- e/c/ e2- ed>c | %18
[M:4/4] (3BBB [GB]>[Ac] [DB]>[DB] [DG]>[DF] |[M:7/4] E6 z2 z2 z4 |] %20
V:2
 z4 z2 [E,B,]>[E,B,] | [E,E]>[E,E] [E,E]>[E,E] [E,E]>[E,B,E] [E,A,D]>[E,G,] | %2
 [A,,A,]>[A,,A,] [A,,A,]>[A,,A,] [E,B,]2 [E,B,]>[E,B,] | %3
 [E,E]>[E,E] [E,C]>[E,E] [E,E]>[E,E] [E,E]>[E,B,] |[M:3/4] [B,,B,]6 |[M:1/4] [E,B,]>[E,B,] | %6
[M:4/4] [E,E]>[E,E] [E,E]>[E,E] [E,E]>[E,B,E] [E,A,D]>[E,G,] | %7
[M:9/8][K:treble] [A,CE]>[A,CE][A,CE]- [A,CE]/[A,EA]/ [A,CA]2- [A,CA][A,EG]>[A,EG] | %8
[M:4/4] (3[B,EG][B,EG][B,EG][K:bass] [B,,B,]>[B,,B,] [B,,A,]>[B,,A,] [B,,B,]>[B,,A,] | %9
[M:3/4] [E,G,]6 |[M:1/4] [E,B,]>[E,E] | %11
[M:4/4][K:treble] [A,EA]2 [A,CE]>[K:bass][A,CE] [A,CE]2 A,,>A,, | E,2 E,>E, E,2 D,>E, | %13
 [B,,B,]>[B,,B,] [B,,B,]>[B,,B,] [B,,B,]>[B,,B,] [C,B,]>[D,B,] |[M:3/4] [E,B,]6 | %15
[M:1/4] [E,B,]>[E,B,] |[M:4/4] [E,E]>[E,E] [E,E]>[E,E] [E,E]>[E,B,E] [E,A,D]>[E,G,] | %17
[M:9/8][K:treble] [A,CE]>[A,CE][A,CE]- [A,CE]/[A,EA]/ [A,CA]2- [A,CA][A,EG]>[A,EG] | %18
[M:4/4] (3[B,EG][B,EG][B,EG][K:bass] [B,,B,]>[B,,B,] [B,,A,]>[B,,A,] [B,,B,]>[B,,A,] | %19
[M:7/4] [E,G,]6 z2 z2 z4 |] %20
V:3
 x8 | x8 | x8 | x8 |[M:3/4] x6 |[M:1/4] x2 |[M:4/4] x8 |[M:9/8] x9 |[M:4/4] x8 |[M:3/4] x6 | %10
[M:1/4] x2 |[M:4/4] z2 A>A A2 [EBd]>[EAc] | z2 [G,E]>[G,E] [G,E]2 [B,FA]>[B,EG] | x8 |[M:3/4] x6 | %15
[M:1/4] x2 |[M:4/4] x8 |[M:9/8] x9 |[M:4/4] x8 |[M:7/4] x14 |] %20

